apps/service-portal/src/assets/images/educationGrades.svg

<svg width="185" height="221" viewBox="0 0 185 221" fill="none" xmlns="http://www.w3.org/2000/svg">
<path d="M89.8248 142.181H16.1562V80.7973C30.209 80.7973 37.1576 63.217 57.2914 63.217C84.4312 63.217 89.8329 80.7973 89.8329 80.7973L89.8248 142.181ZM141.125 201.093C147.042 201.093 151.83 196.297 151.83 190.387C151.83 188.947 151.544 187.58 151.028 186.328C153.525 186.107 156.111 186.426 158.378 187.122C159.311 187.408 160.277 187.572 161.243 187.629C159.998 165.769 180.091 167.798 180.091 167.798C180.091 167.798 182.489 181.123 170.81 186.263C177.718 186.123 184.814 189.7 183.013 200.561C181.196 211.553 173.634 217.314 168.879 218.706C167.422 219.131 165.859 218.698 164.827 217.593C163.248 215.89 160.555 215.89 158.967 217.593C157.936 218.698 156.373 219.131 154.916 218.706C150.234 217.339 142.582 211.724 140.871 201.076C140.961 201.085 141.043 201.093 141.125 201.093ZM89.9475 8.98667V1.22778H25.0855V8.98667H89.9475ZM110.278 96.3478L104.172 91.6908L98.0665 96.3478V50.1628H110.286V96.3478H110.278Z" fill="url(#paint0_linear)"/>
<path d="M163.493 143.409H16.1564C15.4771 143.409 14.9287 142.86 14.9287 142.181V50.5147C14.9287 49.8353 15.4771 49.287 16.1564 49.287H163.493C164.173 49.287 164.721 49.8353 164.721 50.5147V142.181C164.721 142.86 164.173 143.409 163.493 143.409ZM17.3841 140.953H162.266V51.7423H17.3841V140.953Z" fill="#6A2EA0"/>
<path d="M89.8246 143.409C89.1453 143.409 88.5969 142.86 88.5969 142.181V71.7943C88.5969 71.115 89.1453 70.5667 89.8246 70.5667C90.5039 70.5667 91.0523 71.115 91.0523 71.7943V142.181C91.0523 142.86 90.5039 143.409 89.8246 143.409Z" fill="#6A2EA0"/>
<path d="M150.48 81.3947H117.644C116.965 81.3947 116.416 80.8464 116.416 80.1671C116.416 79.4878 116.965 78.9394 117.644 78.9394H150.48C151.159 78.9394 151.708 79.4878 151.708 80.1671C151.708 80.8464 151.151 81.3947 150.48 81.3947Z" fill="#6A2EA0"/>
<path d="M150.48 97.5755H133.292C132.613 97.5755 132.065 97.0271 132.065 96.3478C132.065 95.6685 132.613 95.1201 133.292 95.1201H150.48C151.159 95.1201 151.707 95.6685 151.707 96.3478C151.707 97.0271 151.151 97.5755 150.48 97.5755Z" fill="#6A2EA0"/>
<path d="M150.48 113.756H98.0663C97.387 113.756 96.8386 113.208 96.8386 112.529C96.8386 111.849 97.387 111.301 98.0663 111.301H150.48C151.159 111.301 151.707 111.849 151.707 112.529C151.707 113.208 151.151 113.756 150.48 113.756Z" fill="#6A2EA0"/>
<path d="M89.8245 150.652C84.8074 150.652 80.134 147.951 77.6214 143.605C77.2776 143.016 77.4823 142.271 78.0715 141.927C78.6526 141.592 79.4056 141.788 79.7494 142.377C81.8282 145.97 85.6913 148.196 89.8326 148.196C93.974 148.196 97.8371 145.97 99.9159 142.377C100.26 141.788 101.004 141.592 101.594 141.927C102.183 142.271 102.379 143.016 102.044 143.605C99.5231 147.951 94.8415 150.652 89.8245 150.652Z" fill="#6A2EA0"/>
<path d="M77.1308 150.652H16.1564C15.4771 150.652 14.9287 150.103 14.9287 149.424C14.9287 148.745 15.4771 148.196 16.1564 148.196H77.1308C77.8101 148.196 78.3584 148.745 78.3584 149.424C78.3584 150.103 77.8101 150.652 77.1308 150.652Z" fill="#6A2EA0"/>
<path d="M163.772 150.652H102.797C102.118 150.652 101.57 150.103 101.57 149.424C101.57 148.745 102.118 148.196 102.797 148.196H163.772C164.451 148.196 164.999 148.745 164.999 149.424C164.999 150.103 164.451 150.652 163.772 150.652Z" fill="#6A2EA0"/>
<path d="M167.741 220.097C166.317 220.097 164.933 219.508 163.927 218.428C163.395 217.855 162.675 217.544 161.897 217.544C161.12 217.544 160.399 217.855 159.867 218.428C158.509 219.884 156.487 220.441 154.572 219.884C150.128 218.583 141.264 212.903 139.562 200.724C138.579 193.702 141.043 189.954 143.286 188.047C147.656 184.331 154.335 184.593 158.738 185.943C160.809 186.582 162.986 186.582 165.056 185.943C169.55 184.56 176.359 184.315 180.779 188.178C182.98 190.101 185.37 193.85 184.224 200.757C182.465 211.397 175.213 218.133 169.222 219.884C168.731 220.032 168.232 220.097 167.741 220.097ZM161.897 215.088C163.346 215.088 164.737 215.694 165.727 216.75C166.448 217.519 167.528 217.822 168.535 217.519C172.324 216.406 179.977 211.389 181.802 200.348C182.571 195.691 181.687 192.221 179.166 190.019C175.745 187.024 169.975 186.991 165.776 188.284C163.239 189.07 160.555 189.07 158.018 188.284C154.212 187.114 148.499 186.835 144.882 189.905C142.303 192.098 141.338 195.626 141.992 200.381C143.515 211.315 151.339 216.373 155.259 217.519C156.274 217.814 157.346 217.519 158.067 216.75C159.057 215.694 160.457 215.088 161.897 215.088Z" fill="#6A2EA0"/>
<path d="M161.897 188.873C161.218 188.873 160.67 188.325 160.67 187.646V175.14C160.67 174.46 161.218 173.912 161.897 173.912C162.577 173.912 163.125 174.46 163.125 175.14V187.646C163.125 188.325 162.577 188.873 161.897 188.873Z" fill="#6A2EA0"/>
<path d="M4.89432 10.0015C7.59738 10.0015 9.78864 7.81027 9.78864 5.10721C9.78864 2.40415 7.59738 0.212891 4.89432 0.212891C2.19126 0.212891 0 2.40415 0 5.10721C0 7.81027 2.19126 10.0015 4.89432 10.0015Z" fill="#0061FF"/>
<path d="M89.9473 10.2144H25.0853C24.406 10.2144 23.8577 9.66599 23.8577 8.98668V1.22779C23.8577 0.548482 24.406 0.00012207 25.0853 0.00012207H49.5651C50.2444 0.00012207 50.7928 0.548482 50.7928 1.22779C50.7928 1.90711 50.2444 2.45547 49.5651 2.45547H26.313V7.75901H88.7197V2.45547H59.8284C59.1491 2.45547 58.6008 1.90711 58.6008 1.22779C58.6008 0.548482 59.1491 0.00012207 59.8284 0.00012207H89.9555C90.6348 0.00012207 91.1832 0.548482 91.1832 1.22779V8.98668C91.175 9.66599 90.6266 10.2144 89.9473 10.2144Z" fill="#6A2EA0"/>
<path d="M89.9475 10.2143C89.4237 10.2143 88.9408 9.87875 88.7771 9.35495C88.5725 8.70837 88.9326 8.02088 89.5792 7.81626L98.1811 5.1072L89.5792 2.39814C88.9326 2.19353 88.5725 1.50603 88.7771 0.859456C88.9817 0.212882 89.6692 -0.147235 90.3158 0.0573774L99.2778 2.88102C100.252 3.19203 100.907 4.08414 100.907 5.1072C100.907 6.13026 100.252 7.02237 99.2778 7.33338L90.3158 10.157C90.193 10.1979 90.0703 10.2143 89.9475 10.2143Z" fill="#6A2EA0"/>
<path d="M89.9474 58.7155C89.2681 58.7155 88.7197 58.1672 88.7197 57.4879V44.3927C88.7197 43.7134 89.2681 43.165 89.9474 43.165C90.6267 43.165 91.1751 43.7134 91.1751 44.3927V57.4879C91.1751 58.1672 90.6267 58.7155 89.9474 58.7155Z" fill="#6A2EA0"/>
<defs>
<linearGradient id="paint0_linear" x1="16.1572" y1="110.048" x2="183.299" y2="110.048" gradientUnits="userSpaceOnUse">
<stop stop-color="#4C90FF"/>
<stop offset="0.3921" stop-color="#9077D1"/>
<stop offset="1" stop-color="#FF4C84"/>
</linearGradient>
</defs>
</svg>

<svg width="185" height="221" fill="none" xmlns="http://www.w3.org/2000/svg"><path d="M89.825 142.181H16.156V80.797c14.053 0 21.002-17.58 41.135-17.58 27.14 0 32.542 17.58 32.542 17.58l-.008 61.384Zm51.3 58.912c5.917 0 10.705-4.796 10.705-10.706 0-1.44-.286-2.807-.802-4.059 2.497-.221 5.083.098 7.35.794.933.286 1.899.45 2.865.507-1.245-21.86 18.848-19.831 18.848-19.831s2.398 13.325-9.281 18.465c6.908-.14 14.004 3.437 12.203 14.298-1.817 10.992-9.379 16.753-14.134 18.145a4.004 4.004 0 0 1-4.052-1.113 4 4 0 0 0-5.86 0 4.002 4.002 0 0 1-4.051 1.113c-4.682-1.367-12.334-6.982-14.045-17.63.09.009.172.017.254.017ZM89.948 8.987v-7.76H25.086v7.76h64.862Zm20.33 87.36-6.106-4.656-6.105 4.657V50.163h12.219v46.185h-.008Z" fill="url(#a)"/><path d="M163.493 143.409H16.156c-.679 0-1.227-.549-1.227-1.228V50.515c0-.68.548-1.228 1.227-1.228h147.337c.68 0 1.228.548 1.228 1.228v91.666c0 .679-.548 1.228-1.228 1.228Zm-146.109-2.456h144.882v-89.21H17.384v89.21Z" fill="#6A2EA0"/><path d="M89.825 143.409c-.68 0-1.228-.549-1.228-1.228V71.794c0-.679.548-1.227 1.228-1.227.679 0 1.227.548 1.227 1.227v70.387c0 .679-.548 1.228-1.227 1.228ZM150.48 81.395h-32.836a1.226 1.226 0 1 1 0-2.456h32.836a1.227 1.227 0 1 1 0 2.456ZM150.48 97.576h-17.188a1.226 1.226 0 0 1-1.227-1.228c0-.68.548-1.228 1.227-1.228h17.188c.679 0 1.227.548 1.227 1.228a1.23 1.23 0 0 1-1.227 1.228ZM150.48 113.756H98.066c-.679 0-1.227-.548-1.227-1.227 0-.68.548-1.228 1.227-1.228h52.414c.679 0 1.227.548 1.227 1.228a1.23 1.23 0 0 1-1.227 1.227Z" fill="#6A2EA0"/><path d="M89.825 150.652c-5.018 0-9.691-2.701-12.204-7.047a1.224 1.224 0 0 1 .45-1.678 1.233 1.233 0 0 1 1.678.45 11.682 11.682 0 0 0 10.084 5.819c4.141 0 8.004-2.226 10.083-5.819a1.232 1.232 0 0 1 1.678-.45c.589.344.785 1.089.45 1.678a14.174 14.174 0 0 1-12.22 7.047ZM77.13 150.652H16.157c-.679 0-1.227-.549-1.227-1.228 0-.679.548-1.228 1.227-1.228h60.975c.68 0 1.227.549 1.227 1.228 0 .679-.548 1.228-1.227 1.228ZM163.772 150.652h-60.975a1.226 1.226 0 0 1-1.227-1.228c0-.679.548-1.228 1.227-1.228h60.975c.679 0 1.227.549 1.227 1.228 0 .679-.548 1.228-1.227 1.228ZM167.741 220.097a5.21 5.21 0 0 1-3.814-1.669 2.738 2.738 0 0 0-2.03-.884 2.74 2.74 0 0 0-2.03.884c-1.358 1.456-3.38 2.013-5.295 1.456-4.444-1.301-13.308-6.981-15.01-19.16-.983-7.022 1.481-10.77 3.724-12.677 4.37-3.716 11.049-3.454 15.452-2.104 2.071.639 4.248.639 6.318 0 4.494-1.383 11.303-1.628 15.723 2.235 2.201 1.923 4.591 5.672 3.445 12.579-1.759 10.64-9.011 17.376-15.002 19.127-.491.148-.99.213-1.481.213Zm-5.844-5.009c1.449 0 2.84.606 3.83 1.662.721.769 1.801 1.072 2.808.769 3.789-1.113 11.442-6.13 13.267-17.171.769-4.657-.115-8.127-2.636-10.329-3.421-2.995-9.191-3.028-13.39-1.735a13.057 13.057 0 0 1-7.758 0c-3.806-1.17-9.519-1.449-13.136 1.621-2.579 2.193-3.544 5.721-2.89 10.476 1.523 10.934 9.347 15.992 13.267 17.138 1.015.295 2.087 0 2.808-.769a5.277 5.277 0 0 1 3.83-1.662Z" fill="#6A2EA0"/><path d="M161.897 188.873a1.225 1.225 0 0 1-1.227-1.227V175.14c0-.68.548-1.228 1.227-1.228.68 0 1.228.548 1.228 1.228v12.506c0 .679-.548 1.227-1.228 1.227Z" fill="#6A2EA0"/><path d="M4.894 10.002a4.894 4.894 0 1 0 0-9.79 4.894 4.894 0 0 0 0 9.79Z" fill="#0061FF"/><path d="M89.947 10.214H25.085c-.679 0-1.227-.548-1.227-1.227v-7.76c0-.679.548-1.227 1.227-1.227h24.48c.68 0 1.228.548 1.228 1.228 0 .68-.549 1.227-1.228 1.227H26.313V7.76H88.72V2.455H59.828c-.679 0-1.227-.548-1.227-1.227C58.6.548 59.149 0 59.828 0h30.127c.68 0 1.228.548 1.228 1.228v7.759a1.238 1.238 0 0 1-1.236 1.227Z" fill="#6A2EA0"/><path d="M89.948 10.214a1.226 1.226 0 0 1-.368-2.398l8.601-2.709-8.602-2.709a1.226 1.226 0 1 1 .737-2.34l8.962 2.823a2.328 2.328 0 0 1 1.629 2.226 2.328 2.328 0 0 1-1.63 2.226l-8.961 2.824c-.123.04-.246.057-.368.057ZM89.947 58.715c-.679 0-1.227-.548-1.227-1.227V44.393c0-.68.548-1.228 1.227-1.228.68 0 1.228.548 1.228 1.228v13.095c0 .68-.548 1.227-1.228 1.227Z" fill="#6A2EA0"/><defs><linearGradient id="a" x1="16.157" y1="110.048" x2="183.299" y2="110.048" gradientUnits="userSpaceOnUse"><stop stop-color="#4C90FF"/><stop offset=".392" stop-color="#9077D1"/><stop offset="1" stop-color="#FF4C84"/></linearGradient></defs></svg>
